findly-builder/apps/searchassist/src/assets/icons/content/extractfaq.svg

<svg width="47" height="47" viewBox="0 0 47 47" fill="none" xmlns="http://www.w3.org/2000/svg">
<path d="M0 23.5C0 10.5221 10.5221 0 23.5 0C36.4779 0 47 10.5221 47 23.5C47 36.4779 36.4779 47 23.5 47C10.5221 47 0 36.4779 0 23.5Z" fill="#DD3646"/>
<path d="M43.4747 23.5C43.4747 19.6942 42.6839 16.1081 41.3139 12.925H44.4652C44.0563 12.1154 43.6133 11.327 43.1163 10.575H40.1647C36.5868 4.2112 30.4569 0 23.4997 0C16.5425 0 10.4126 4.2112 6.83468 10.575H3.88308C3.38605 11.327 2.94308 12.1154 2.53418 12.925H5.68553C4.31548 16.1081 3.5247 19.6942 3.5247 23.5C3.5247 27.3058 4.31548 30.8919 5.68553 34.075H2.53418C2.94308 34.8846 3.38605 35.673 3.88308 36.425H6.83468C10.4126 42.7888 16.5425 47 23.4997 47C30.4569 47 36.5868 42.7888 40.1647 36.425H43.1163C43.6133 35.673 44.0563 34.8846 44.4652 34.075H41.3139C42.6839 30.8919 43.4747 27.3058 43.4747 23.5ZM41.1247 23.5C41.1247 27.354 40.247 30.9601 38.7406 34.075H31.9339C32.5719 30.7462 32.8997 27.0873 32.8997 23.5C32.8997 19.9127 32.5719 16.2538 31.9339 12.925H38.7406C40.247 16.0399 41.1247 19.646 41.1247 23.5ZM23.4997 44.65C21.514 44.65 19.3978 41.5515 18.0078 36.425H28.9928C27.6016 41.5515 25.4855 44.65 23.4997 44.65ZM17.4461 34.075C16.8269 31.0353 16.4497 27.4609 16.4497 23.5C16.4497 19.5391 16.8269 15.9647 17.4461 12.925H29.5533C30.1725 15.9647 30.5497 19.5391 30.5497 23.5C30.5497 27.4609 30.1725 31.0353 29.5533 34.075H17.4461ZM23.4997 2.35C25.4855 2.35 27.6016 5.44847 28.9917 10.575H18.0066C19.3978 5.44847 21.514 2.35 23.4997 2.35ZM37.4199 10.575H31.4145C30.679 7.63867 29.6767 5.0713 28.4159 3.20423C32.0337 4.46852 35.1663 7.0876 37.4199 10.575ZM18.5835 3.20423C17.3227 5.07247 16.3205 7.63867 15.5849 10.575H9.57948C11.8331 7.0876 14.9657 4.46852 18.5835 3.20423ZM5.8747 23.5C5.8747 19.646 6.75243 16.0399 8.25878 12.925H15.0656C14.4275 16.2538 14.0997 19.9127 14.0997 23.5C14.0997 27.0873 14.4275 30.7462 15.0656 34.075H8.25878C6.75243 30.9601 5.8747 27.354 5.8747 23.5ZM9.57948 36.425H15.5849C16.3205 39.3613 17.3227 41.9287 18.5835 43.7958C14.9657 42.5315 11.8331 39.9124 9.57948 36.425ZM28.4159 43.7958C29.6767 41.9275 30.679 39.3613 31.4145 36.425H37.4199C35.1663 39.9124 32.0337 42.5315 28.4159 43.7958Z" fill="#EF9AA3"/>
<path opacity="0.05" d="M45.0427 17.625H41.9407C41.5295 17.625 41.1746 17.9129 41.09 18.3147L40.5366 20.9491L39.8539 18.2783C39.7564 17.8941 39.4098 17.625 39.0126 17.625H36.1879C35.7908 17.625 35.4442 17.8941 35.3455 18.2795L34.6628 20.9503L34.1094 18.3159C34.0259 17.9129 33.6711 17.625 33.2598 17.625H27.8407C27.4295 17.625 27.0746 17.9129 26.99 18.3147L26.4366 20.9491L25.7539 18.2783C25.6564 17.8941 25.3098 17.625 24.9126 17.625H22.0879C21.6908 17.625 21.3442 17.8941 21.2455 18.2795L20.5628 20.9503L20.0094 18.3159C19.9259 17.9129 19.5711 17.625 19.1598 17.625H13.7407C13.3295 17.625 12.9746 17.9129 12.89 18.3147L12.3366 20.9491L11.6539 18.2783C11.5564 17.8941 11.2098 17.625 10.8126 17.625H7.98794C7.59079 17.625 7.24417 17.8941 7.14547 18.2795L6.46397 20.9503L5.91054 18.3147C5.82594 17.9129 5.47109 17.625 5.05984 17.625H1.95784C1.39267 17.625 0.977892 18.1561 1.11537 18.7048L3.61812 28.717C3.71447 29.1036 4.06227 29.375 4.46059 29.375H7.81404C8.20767 29.375 8.55077 29.1153 8.65182 28.7358C8.87742 27.8957 9.26047 26.4645 9.39912 25.9393C9.53777 26.4645 9.92082 27.8957 10.1464 28.7358C10.2498 29.1153 10.5929 29.375 10.9865 29.375H14.34C14.7383 29.375 15.0861 29.1036 15.1825 28.717L16.4503 23.6469L17.7181 28.717C17.8145 29.1036 18.1623 29.375 18.5606 29.375H21.914C22.3077 29.375 22.6508 29.1153 22.7518 28.7358C22.9774 27.8957 23.3605 26.4645 23.4991 25.9393C23.6378 26.4645 24.0208 27.8957 24.2464 28.7358C24.3498 29.1153 24.6929 29.375 25.0865 29.375H28.44C28.8383 29.375 29.1861 29.1036 29.2825 28.717L30.5503 23.6469L31.8181 28.717C31.9145 29.1036 32.2623 29.375 32.6606 29.375H36.014C36.4077 29.375 36.7508 29.1153 36.8518 28.7358C37.0774 27.8957 37.4605 26.4645 37.5991 25.9393C37.7378 26.4645 38.1208 27.8957 38.3464 28.7358C38.4498 29.1153 38.7929 29.375 39.1865 29.375H42.54C42.9383 29.375 43.2861 29.1036 43.3825 28.717L45.8852 18.7048C46.0227 18.1561 45.6079 17.625 45.0427 17.625Z" fill="black"/>
<path opacity="0.07" d="M44.5944 18.2124H42.2244C41.926 18.2124 41.6675 18.4216 41.6064 18.7141L40.5923 23.5422L39.3527 18.6871C39.281 18.4075 39.0296 18.2124 38.7405 18.2124H36.4587C36.1708 18.2124 35.9182 18.4075 35.8465 18.6871L34.6069 23.5422L33.5917 18.7141C33.5306 18.4216 33.2721 18.2124 32.9736 18.2124H28.1221C27.8236 18.2124 27.5651 18.4216 27.504 18.7141L26.49 23.5422L25.2504 18.6871C25.1787 18.4075 24.9272 18.2124 24.6382 18.2124H22.3563C22.0685 18.2124 21.8158 18.4075 21.7442 18.6871L20.5045 23.5422L19.4893 18.7141C19.4282 18.4216 19.1697 18.2124 18.8713 18.2124H14.0197C13.7213 18.2124 13.4628 18.4216 13.4017 18.7141L12.3876 23.5422L11.148 18.6871C11.0763 18.4075 10.8249 18.2124 10.5358 18.2124H8.25398C7.96611 18.2124 7.71349 18.4075 7.64181 18.6871L6.40219 23.5422L5.39286 18.7141C5.33176 18.4216 5.07443 18.2124 4.77599 18.2124H2.40484C1.99476 18.2124 1.69279 18.5978 1.79266 18.9973L4.12034 28.3092C4.19084 28.59 4.44346 28.7874 4.73251 28.7874H7.54428C7.82981 28.7874 8.07891 28.5982 8.15294 28.3221C8.43729 27.2599 9.31031 23.9946 9.39726 23.5446C9.48539 23.9946 10.3572 27.2611 10.6416 28.3221C10.7156 28.5982 10.9647 28.7874 11.2502 28.7874H14.062C14.3522 28.7874 14.6037 28.59 14.6742 28.3092L16.4496 21.2239L18.2215 28.3092C18.292 28.59 18.5446 28.7874 18.8337 28.7874H21.6455C21.931 28.7874 22.1801 28.5982 22.2541 28.3221C22.5385 27.2599 23.4115 23.9946 23.4984 23.5446C23.5866 23.9946 24.4584 27.2611 24.7428 28.3221C24.8168 28.5982 25.0659 28.7874 25.3514 28.7874H28.1632C28.4534 28.7874 28.7049 28.59 28.7754 28.3092L30.5496 21.2239L32.3215 28.3092C32.392 28.59 32.6446 28.7874 32.9337 28.7874H35.7455C36.031 28.7874 36.2801 28.5982 36.3541 28.3221C36.6385 27.2599 37.5115 23.9946 37.5984 23.5446C37.6866 23.9946 38.5584 27.2611 38.8428 28.3221C38.9168 28.5982 39.1659 28.7874 39.4514 28.7874H42.2632C42.5534 28.7874 42.8049 28.59 42.8754 28.3092L45.203 18.9973C45.3064 18.5978 45.0045 18.2124 44.5944 18.2124Z" fill="black"/>
<path d="M28.0886 18.7998L26.547 26.1353L24.6752 18.7998H22.3252L20.4534 26.1353L18.9118 18.7998H16.4502L18.8002 28.1998H21.6801C21.6801 28.1998 23.4579 21.5775 23.5002 21.1498C23.5425 21.5775 25.3203 28.1998 25.3203 28.1998H28.2002L30.5502 18.7998H28.0886Z" fill="white"/>
<path d="M13.988 18.7998L12.4464 26.1353L10.5746 18.7998H8.22461L6.35283 26.1353L4.81123 18.7998H2.34961L4.69961 28.1998H7.57953C7.57953 28.1998 9.35731 21.5775 9.39961 21.1498C9.44191 21.5775 11.2197 28.1998 11.2197 28.1998H14.0996L16.4496 18.7998H13.988Z" fill="white"/>
<path d="M42.1882 18.7998L40.6466 26.1353L38.7748 18.7998H36.4248L34.553 26.1353L33.0114 18.7998H30.5498L32.8998 28.1998H35.7797C35.7797 28.1998 37.5575 21.5775 37.5998 21.1498C37.6421 21.5775 39.4199 28.1998 39.4199 28.1998H42.2998L44.6498 18.7998H42.1882Z" fill="white"/>
</svg>

<svg width="47" height="47" fill="none" xmlns="http://www.w3.org/2000/svg"><path d="M0 23.5C0 10.522 10.522 0 23.5 0S47 10.522 47 23.5 36.478 47 23.5 47 0 36.478 0 23.5Z" fill="#DD3646"/><path d="M43.475 23.5c0-3.806-.791-7.392-2.161-10.575h3.151a23.31 23.31 0 0 0-1.349-2.35h-2.951C36.587 4.211 30.457 0 23.5 0 16.543 0 10.413 4.211 6.835 10.575H3.883c-.497.752-.94 1.54-1.349 2.35h3.152A26.733 26.733 0 0 0 3.525 23.5c0 3.806.79 7.392 2.16 10.575h-3.15c.408.81.851 1.598 1.348 2.35h2.952C10.413 42.789 16.543 47 23.5 47c6.957 0 13.087-4.211 16.665-10.575h2.951c.497-.752.94-1.54 1.35-2.35h-3.152a26.733 26.733 0 0 0 2.16-10.575Zm-2.35 0c0 3.854-.878 7.46-2.384 10.575h-6.807c.638-3.329.966-6.988.966-10.575 0-3.587-.328-7.246-.966-10.575h6.807c1.506 3.115 2.384 6.721 2.384 10.575ZM23.5 44.65c-1.986 0-4.102-3.099-5.492-8.225h10.985c-1.391 5.127-3.508 8.225-5.493 8.225Zm-6.054-10.575c-.62-3.04-.996-6.614-.996-10.575 0-3.96.377-7.535.996-10.575h12.107c.62 3.04.997 6.614.997 10.575 0 3.96-.378 7.535-.997 10.575H17.446ZM23.5 2.35c1.985 0 4.102 3.098 5.492 8.225H18.007c1.39-5.127 3.507-8.225 5.493-8.225Zm13.92 8.225h-6.006c-.735-2.936-1.737-5.504-2.998-7.37 3.618 1.264 6.75 3.883 9.004 7.37Zm-18.837-7.37c-1.26 1.867-2.262 4.434-2.998 7.37H9.579c2.254-3.487 5.387-6.106 9.005-7.37ZM5.876 23.5c0-3.854.877-7.46 2.384-10.575h6.807c-.639 3.329-.966 6.988-.966 10.575 0 3.587.328 7.246.966 10.575H8.259C6.752 30.96 5.875 27.354 5.875 23.5ZM9.58 36.425h6.006c.735 2.936 1.738 5.504 2.998 7.37-3.617-1.264-6.75-3.883-9.004-7.37Zm18.837 7.37c1.26-1.867 2.263-4.434 2.998-7.37h6.006c-2.254 3.487-5.386 6.107-9.004 7.37Z" fill="#EF9AA3"/><path opacity=".05" d="M45.043 17.625H41.94a.87.87 0 0 0-.851.69l-.553 2.634-.683-2.67a.868.868 0 0 0-.841-.654h-2.825a.87.87 0 0 0-.843.654l-.682 2.671-.554-2.634a.867.867 0 0 0-.85-.691H27.84a.87.87 0 0 0-.851.69l-.553 2.634-.683-2.67a.868.868 0 0 0-.841-.654h-2.825a.87.87 0 0 0-.843.654l-.682 2.671-.554-2.634a.867.867 0 0 0-.85-.691H13.74a.87.87 0 0 0-.851.69l-.553 2.634-.683-2.67a.868.868 0 0 0-.841-.654H7.988a.87.87 0 0 0-.843.654l-.681 2.671-.553-2.635a.87.87 0 0 0-.851-.69H1.958a.868.868 0 0 0-.843 1.08l2.503 10.012a.868.868 0 0 0 .843.658h3.353c.394 0 .737-.26.838-.64.225-.84.608-2.27.747-2.796.139.526.522 1.957.747 2.797.104.38.447.639.84.639h3.354a.869.869 0 0 0 .842-.658l1.268-5.07 1.268 5.07a.869.869 0 0 0 .843.658h3.353c.394 0 .737-.26.838-.64.225-.84.608-2.27.747-2.796.139.526.522 1.957.747 2.797.104.38.447.639.84.639h3.354a.869.869 0 0 0 .842-.658l1.268-5.07 1.268 5.07a.869.869 0 0 0 .843.658h3.353c.394 0 .737-.26.838-.64.225-.84.609-2.27.747-2.796.139.526.522 1.957.747 2.797.104.38.447.639.84.639h3.354a.869.869 0 0 0 .843-.658l2.502-10.012a.868.868 0 0 0-.842-1.08Z" fill="#000"/><path opacity=".07" d="M44.594 18.212h-2.37a.631.631 0 0 0-.618.502l-1.014 4.828-1.24-4.855a.631.631 0 0 0-.611-.475h-2.282a.632.632 0 0 0-.613.475l-1.24 4.855-1.014-4.828a.631.631 0 0 0-.618-.502h-4.852a.631.631 0 0 0-.618.502l-1.014 4.828-1.24-4.855a.631.631 0 0 0-.612-.475h-2.282a.632.632 0 0 0-.612.475l-1.24 4.855-1.015-4.828a.631.631 0 0 0-.618-.502H14.02a.631.631 0 0 0-.618.502l-1.014 4.828-1.24-4.855a.631.631 0 0 0-.612-.475H8.254a.632.632 0 0 0-.612.475l-1.24 4.855-1.01-4.828a.63.63 0 0 0-.616-.502H2.405a.631.631 0 0 0-.612.785L4.12 28.31c.07.281.323.478.613.478h2.811a.628.628 0 0 0 .609-.465c.284-1.062 1.157-4.327 1.244-4.777.088.45.96 3.716 1.245 4.777a.628.628 0 0 0 .608.465h2.812a.63.63 0 0 0 .612-.478l1.776-7.085 1.771 7.085a.633.633 0 0 0 .613.478h2.811a.63.63 0 0 0 .61-.465c.284-1.062 1.157-4.327 1.243-4.777.089.45.96 3.716 1.245 4.777a.628.628 0 0 0 .608.465h2.812a.63.63 0 0 0 .612-.478l1.775-7.085 1.771 7.085a.633.633 0 0 0 .613.478h2.812a.627.627 0 0 0 .608-.465c.285-1.062 1.157-4.327 1.244-4.777.089.45.96 3.716 1.245 4.777a.628.628 0 0 0 .608.465h2.812a.63.63 0 0 0 .612-.478l2.328-9.312a.627.627 0 0 0-.609-.785Z" fill="#000"/><path d="m28.089 18.8-1.542 7.335-1.872-7.335h-2.35l-1.872 7.335-1.541-7.335H16.45l2.35 9.4h2.88s1.778-6.622 1.82-7.05c.043.428 1.82 7.05 1.82 7.05h2.88l2.35-9.4h-2.46Z" fill="#fff"/><path d="m13.988 18.8-1.542 7.335-1.871-7.335h-2.35l-1.872 7.335L4.81 18.8H2.35l2.35 9.4h2.88s1.777-6.622 1.82-7.05c.042.428 1.82 7.05 1.82 7.05h2.88l2.35-9.4h-2.462Zm28.2 0-1.541 7.335-1.872-7.335h-2.35l-1.872 7.335-1.542-7.335H30.55l2.35 9.4h2.88s1.777-6.622 1.82-7.05c.042.428 1.82 7.05 1.82 7.05h2.88l2.35-9.4h-2.462Z" fill="#fff"/></svg>
